lite/images/sprite/ico-base/ico-plus.svg

<?xml version="1.0" encoding="utf-8"?>
<!DOCTYPE svg PUBLIC "-//W3C//DTD SVG 1.1//EN" "http://www.w3.org/Graphics/SVG/1.1/DTD/svg11.dtd">
<svg version="1.1" baseProfile="full"
 xmlns="http://www.w3.org/2000/svg"
 xmlns:xlink="http://www.w3.org/1999/xlink"
 xmlns:ev="http://www.w3.org/2001/xml-events" 
  height="13px" 
  width="13px" 
>
<path fill="rgb( 255, 255, 255 )"
 d="M12.0170000000001,6.99900000000002 C12.0170000000001,6.99900000000002 7.01700000000005,6.99900000000002 7.01700000000005,6.99900000000002 C7.01700000000005,6.99900000000002 7.01700000000005,12.062 7.01700000000005,12.062 C7.01700000000005,12.062 5,12.062 5,12.062 C5,12.062 5,6.99900000000002 5,6.99900000000002 C5,6.99900000000002 0,6.99900000000002 0,6.99900000000002 C0,6.99900000000002 0,4.99900000000002 0,4.99900000000002 C0,4.99900000000002 5,4.99900000000002 5,4.99900000000002 C5,4.99900000000002 5,0.01600000000002 5,0.01600000000002 C5,0.01600000000002 7.01700000000005,0.01600000000002 7.01700000000005,0.01600000000002 C7.01700000000005,0.01600000000002 7.01700000000005,4.99900000000002 7.01700000000005,4.99900000000002 C7.01700000000005,4.99900000000002 12.0170000000001,4.99900000000002 12.0170000000001,4.99900000000002 C12.0170000000001,4.99900000000002 12.0170000000001,6.99900000000002 12.0170000000001,6.99900000000002 Z "/>
</svg>

<?xml version="1.0" encoding="utf-8"?><svg baseProfile="full" xmlns="http://www.w3.org/2000/svg" height="13" width="13"><path fill="rgb( 255, 255, 255 )" d="M12.017 7s-5 0-5 0 0 5.062 0 5.062-2.017 0-2.017 0S5 7 5 7 0 7 0 7s0-2 0-2 5 0 5 0S5 .015 5 .015s2.017 0 2.017 0 0 4.983 0 4.983 5 0 5 0 0 2 0 2z"/></svg>
